Adwaita++-Dark/actions/16/kdenlive-locate-clip.svg

<svg fill="none" height="16" viewBox="0 0 16 16" width="16" xmlns="http://www.w3.org/2000/svg">
  <g fill="#e6ddff">
    <path d="m1 0s-1 0-1 1v11s0 1 1 1h1 1v-1.5h-1-.5v-10h4l2 2h5v.5 1h1.5v-1-1c0-1-1-1-1-1h-5l-2-2z"/>
    <path clip-rule="evenodd" d="m6.5 7.5v7h7v-7zm-1.5-1.5c-.55228 0-1 .44772-1 1v8c0 .5523.44772 1 1 1h10c.5523 0 1-.4477 1-1v-8c0-.55228-.4477-1-1-1z" fill-rule="evenodd"/>
    <path d="m8 9.00001v3.99999h.40418.04181c.07801.0004.15511-.0155.223-.05l3.12191-1.6c.1386-.0688.2091-.2094.2091-.35s-.0705-.2812-.2091-.35l-3.12191-1.59999c-.06789-.0345-.14499-.05052-.223-.05h-.04181z"/>
  </g>
</svg>

<svg xmlns="http://www.w3.org/2000/svg" fill="none" width="16" height="16" version="1.1" viewBox="0 0 16 16">
 <path style="fill:#E6DDFF" d="M 1 0 C 1 0 0 0 0 1 L 0 12 C 0 12 0 13 1 13 L 2 13 L 3 13 L 3 11.5 L 2 11.5 L 1.5 11.5 L 1.5 1.5 L 5.5 1.5 L 7.5 3.5 L 12.5 3.5 L 12.5 4 L 12.5 5 L 14 5 L 14 4 L 14 3 C 14 2 13 2 13 2 L 8 2 L 6 0 L 1 0 z"/>
 <path fill="#E6DDFF" fill-rule="evenodd" d="M6.5 7.5V14.5H13.5V7.5H6.5ZM5 6C4.44772 6 4 6.44772 4 7V15C4 15.5523 4.44772 16 5 16H15C15.5523 16 16 15.5523 16 15V7C16 6.44772 15.5523 6 15 6H5Z" clip-rule="evenodd"/>
 <path fill="#E6DDFF" d="M8 9.00001V13H8.40418H8.44599C8.524 13.0004 8.6011 12.9845 8.66899 12.95L11.7909 11.35C11.9295 11.2812 12 11.1406 12 11C12 10.8594 11.9295 10.7188 11.7909 10.65L8.66899 9.05001C8.6011 9.01551 8.524 8.99949 8.44599 9.00001H8.40418H8Z"/>
</svg>
